X:142
T:Uncle Bernard's Polka
Z:Jack Campin, http://www.campin.me.uk/
F:Jack Campin's Nine-Note Tunebook
% last edit 21-06-2014
M:2/4
L:1/8
Q:1/4=104
K:D
E2|DEFG|AA/B/ A/G/F|GG/A/    G/F/E|FF/G/ FE|
   DEFG|AA/B/ Ad   |c/B/A/G/ FE   |D2     :|
A2|ddcB|AA/B/ A/G/F|GG/A/    G/F/E|FF/G/ FA|
   ddcB|AA/B/ Ad   |c/B/A/G/ FE   |D2     :|

